X: 594
T: Tingfang wugeng
L: 1/8
M: 2/4
K: F
G2G G [I:setbarnb 1]| 
A G F D | 
G4 | 
c2d c | 
B2c A | 
G2G A | 
G F E D | 
F3G | 
F4 | 
d f d c | 
B2c2 | 
d f d c | 
B2c A | 
G2G A | 
G F E D | 
F4 | 
D F D F | 
G4 | 
c3A | 
G2c2 | 
G A G F | 
DF2G | 
D C B, A, | 
C4 | 
D F G F | 
C4 |]

@@@ Tune index: 9468
